X:0556
T:Gi'e the Lasses mair o'it.
M:C
L:1/8
Q:1/4=120
I: :| ||
N:the A's in bar 3 are double-stopped (tails both ways)
Z:Jack Campin * www.campin.me.uk * 2009
K:D
F|A2     A2   (d>ef>)(e| d<BA>)F       E>DEF |\
 [A2A2] [A2A2] d>ef>e  |(d<BA)>F      TE2 D :|
f|a<f````f>b   a>gTed  |(c/d/e/f/ g)>e b>eg>e|\
  a<f````f>b   afed    |(c/d/e/f/ g)f Te2 d2 |
  a(<f```f>)b  a>fTed  |(c/d/e/f/ g)e  b>eg>e|\
  a>f````e>d   d>ef>e  | d<BTA>F      TE2 D |]
<end>
<start>
